Newaita-dark/mimetypes/64/text-x-apport.svg

<?xml version="1.0" encoding="UTF-8"?>
<svg xmlns="http://www.w3.org/2000/svg" xmlns:xlink="http://www.w3.org/1999/xlink" width="64px" height="64px" viewBox="0 0 64 64" version="1.1">
<defs>
<linearGradient id="linear0" gradientUnits="userSpaceOnUse" x1="254" y1="233.5" x2="254" y2="254.666672" gradientTransform="matrix(0.125012,0,0,0.125012,1.32304,26.87757)">
<stop offset="0" style="stop-color:rgb(0%,0%,0%);stop-opacity:0.27451;"/>
<stop offset="1" style="stop-color:rgb(0%,0%,0%);stop-opacity:0;"/>
</linearGradient>
<radialGradient id="radial0" gradientUnits="userSpaceOnUse" cx="450.908936" cy="189.579361" fx="450.908936" fy="189.579361" r="21.166656" gradientTransform="matrix(0.000000348341,-0.156265,-0.281277,-0.000000203077,98.969138,127.190665)">
<stop offset="0" style="stop-color:rgb(0%,0%,0%);stop-opacity:0.313726;"/>
<stop offset="0.222222" style="stop-color:rgb(0%,0%,0%);stop-opacity:0.27451;"/>
<stop offset="1" style="stop-color:rgb(0%,0%,0%);stop-opacity:0;"/>
</radialGradient>
<radialGradient id="radial1" gradientUnits="userSpaceOnUse" cx="450.908936" cy="189.579361" fx="450.908936" fy="189.579361" r="21.166656" gradientTransform="matrix(-0.000000348341,0.156265,0.281277,0.000000203077,-36.786098,-15.054958)">
<stop offset="0" style="stop-color:rgb(0%,0%,0%);stop-opacity:0.313726;"/>
<stop offset="0.222222" style="stop-color:rgb(0%,0%,0%);stop-opacity:0.27451;"/>
<stop offset="1" style="stop-color:rgb(0%,0%,0%);stop-opacity:0;"/>
</radialGradient>
<radialGradient id="radial2" gradientUnits="userSpaceOnUse" cx="450.908936" cy="189.579361" fx="450.908936" fy="189.579361" r="21.166656" gradientTransform="matrix(-0.000000348341,-0.156265,0.281277,-0.000000203077,-36.786098,127.190665)">
<stop offset="0" style="stop-color:rgb(0%,0%,0%);stop-opacity:0.313726;"/>
<stop offset="0.222222" style="stop-color:rgb(0%,0%,0%);stop-opacity:0.27451;"/>
<stop offset="1" style="stop-color:rgb(0%,0%,0%);stop-opacity:0;"/>
</radialGradient>
<radialGradient id="radial3" gradientUnits="userSpaceOnUse" cx="450.908936" cy="189.579361" fx="450.908936" fy="189.579361" r="21.166656" gradientTransform="matrix(0.000000348341,0.156265,-0.281277,0.000000203077,98.969135,-15.054959)">
<stop offset="0" style="stop-color:rgb(0%,0%,0%);stop-opacity:0.313726;"/>
<stop offset="0.222222" style="stop-color:rgb(0%,0%,0%);stop-opacity:0.27451;"/>
<stop offset="1" style="stop-color:rgb(0%,0%,0%);stop-opacity:0;"/>
</radialGradient>
<linearGradient id="linear1" gradientUnits="userSpaceOnUse" x1="940" y1="1695.118164" x2="940" y2="175.118118" gradientTransform="matrix(0.0330761,0,0,0.0330761,0,0)">
<stop offset="0" style="stop-color:rgb(93.725491%,60.392159%,60.392159%);stop-opacity:1;"/>
<stop offset="1" style="stop-color:rgb(100%,80.392158%,82.352942%);stop-opacity:1;"/>
</linearGradient>
<linearGradient id="linear2" gradientUnits="userSpaceOnUse" x1="249.189423" y1="233.5" x2="249.189423" y2="254.666687" gradientTransform="matrix(0.0597883,0,0,0.218771,30.084847,-32.721821)">
<stop offset="0" style="stop-color:rgb(0%,0%,0%);stop-opacity:0.27451;"/>
<stop offset="1" style="stop-color:rgb(0%,0%,0%);stop-opacity:0;"/>
</linearGradient>
<linearGradient id="linear3" gradientUnits="userSpaceOnUse" x1="338.666656" y1="233.5" x2="338.666656" y2="-168.666672" gradientTransform="matrix(0.125012,0,0,0.125012,0,26.877566)">
<stop offset="0" style="stop-color:rgb(93.725491%,32.549021%,31.37255%);stop-opacity:1;"/>
<stop offset="1" style="stop-color:rgb(89.803922%,45.09804%,45.09804%);stop-opacity:1;"/>
</linearGradient>
<linearGradient id="linear4" gradientUnits="userSpaceOnUse" x1="940" y1="1695.118164" x2="940" y2="175.118118" gradientTransform="matrix(1,0,0,1,0,0)">
<stop offset="0" style="stop-color:rgb(93.725491%,32.549021%,31.37255%);stop-opacity:1;"/>
<stop offset="1" style="stop-color:rgb(89.803922%,45.09804%,45.09804%);stop-opacity:1;"/>
</linearGradient>
</defs>
<g id="surface1">
<path style=" stroke:none;fill-rule:nonzero;fill:url(#linear0);" d="M 15.875 56.066406 L 46.304688 56.066406 L 46.304688 58.714844 L 15.875 58.714844 Z M 15.875 56.066406 "/>
<path style=" stroke:none;fill-rule:nonzero;fill:url(#radial0);" d="M 46.304688 56.066406 L 51.597656 56.066406 L 51.597656 53.421875 L 46.304688 53.421875 Z M 46.304688 56.066406 "/>
<path style=" stroke:none;fill-rule:nonzero;fill:url(#radial1);" d="M 15.875 56.066406 L 10.585938 56.066406 L 10.585938 58.714844 L 15.875 58.714844 Z M 15.875 56.066406 "/>
<path style=" stroke:none;fill-rule:nonzero;fill:url(#radial2);" d="M 15.875 56.066406 L 10.585938 56.066406 L 10.585938 53.421875 L 15.875 53.421875 Z M 15.875 56.066406 "/>
<path style=" stroke:none;fill-rule:nonzero;fill:url(#radial3);" d="M 46.304688 56.066406 L 51.597656 56.066406 L 51.597656 58.714844 L 46.304688 58.714844 Z M 46.304688 56.066406 "/>
<path style=" stroke:none;fill-rule:nonzero;fill:url(#linear1);" d="M 37.085938 5.792969 L 13.230469 5.792969 C 11.765625 5.792969 10.585938 6.972656 10.585938 8.4375 L 10.585938 53.421875 C 10.585938 54.886719 11.765625 56.066406 13.230469 56.066406 L 48.953125 56.066406 C 50.417969 56.066406 51.597656 54.886719 51.597656 53.421875 L 51.597656 20.308594 Z M 37.085938 5.792969 "/>
<path style=" stroke:none;fill-rule:nonzero;fill:url(#linear2);" d="M 37.046875 18.359375 L 49.613281 18.359375 L 51.597656 20.34375 L 51.597656 22.992188 L 37.046875 22.992188 Z M 37.046875 18.359375 "/>
<path style=" stroke:none;fill-rule:nonzero;fill:rgb(0%,0%,0%);fill-opacity:0.235294;" d="M 10.585938 52.394531 L 10.585938 53.421875 C 10.585938 54.886719 11.765625 56.066406 13.230469 56.066406 L 48.953125 56.066406 C 50.417969 56.066406 51.597656 54.886719 51.597656 53.421875 L 51.597656 52.394531 C 51.597656 53.859375 50.417969 55.039062 48.953125 55.039062 L 13.230469 55.039062 C 11.765625 55.039062 10.585938 53.859375 10.585938 52.394531 Z M 10.585938 52.394531 "/>
<path style=" stroke:none;fill-rule:nonzero;fill:rgb(96.470588%,96.470588%,96.470588%);fill-opacity:0.588235;" d="M 13.230469 5.792969 C 11.765625 5.792969 10.585938 6.972656 10.585938 8.4375 L 10.585938 9.429688 C 10.585938 7.964844 11.765625 6.785156 13.230469 6.785156 L 37.085938 6.785156 L 51.597656 21.300781 L 51.597656 20.308594 L 37.085938 5.792969 Z M 13.230469 5.792969 "/>
<path style=" stroke:none;fill-rule:nonzero;fill:url(#linear3);" d="M 51.597656 20.308594 L 37.085938 5.792969 L 37.085938 17.660156 C 37.085938 19.125 38.265625 20.308594 39.730469 20.308594 Z M 51.597656 20.308594 "/>
<path style=" stroke:none;fill-rule:nonzero;fill:rgb(0%,0%,0%);fill-opacity:0.235294;" d="M 37.085938 17.039062 L 37.085938 17.660156 C 37.085938 19.125 38.265625 20.308594 39.730469 20.308594 L 51.597656 20.308594 L 50.976562 19.683594 L 39.730469 19.683594 C 38.265625 19.683594 37.085938 18.503906 37.085938 17.039062 Z M 37.085938 17.039062 "/>
<path style=" stroke:none;fill-rule:nonzero;fill:rgb(100%,100%,100%);fill-opacity:0.392157;" d="M 37.085938 5.792969 L 37.085938 6.785156 L 50.605469 20.308594 L 51.597656 20.308594 Z M 37.085938 5.792969 "/>
<path style=" stroke:none;fill-rule:nonzero;fill:rgb(12.941177%,12.941177%,12.941177%);fill-opacity:1;" d="M 37.082031 5.605469 C 36.980469 5.605469 36.898438 5.691406 36.898438 5.792969 L 36.898438 17.660156 C 36.898438 19.226562 38.164062 20.496094 39.730469 20.496094 L 51.597656 20.496094 C 51.675781 20.492188 51.742188 20.449219 51.773438 20.378906 C 51.800781 20.308594 51.785156 20.226562 51.730469 20.175781 L 37.214844 5.660156 C 37.179688 5.625 37.132812 5.605469 37.082031 5.605469 Z M 37.273438 6.246094 L 51.144531 20.117188 L 39.730469 20.117188 C 38.363281 20.117188 37.273438 19.027344 37.273438 17.660156 Z M 37.273438 6.246094 "/>
<path style=" stroke:none;fill-rule:nonzero;fill:rgb(12.941177%,12.941177%,12.941177%);fill-opacity:1;" d="M 13.230469 5.605469 C 11.664062 5.605469 10.398438 6.871094 10.398438 8.4375 L 10.398438 53.421875 C 10.398438 54.988281 11.664062 56.253906 13.230469 56.253906 L 48.953125 56.253906 C 50.519531 56.253906 51.785156 54.988281 51.785156 53.421875 L 51.785156 20.308594 C 51.785156 20.257812 51.765625 20.210938 51.730469 20.175781 L 37.214844 5.660156 C 37.179688 5.625 37.132812 5.605469 37.085938 5.605469 Z M 13.230469 5.980469 L 37.007812 5.980469 L 51.410156 20.382812 L 51.410156 53.421875 C 51.410156 54.785156 50.316406 55.878906 48.953125 55.878906 L 13.230469 55.878906 C 11.863281 55.878906 10.773438 54.785156 10.773438 53.421875 L 10.773438 8.4375 C 10.773438 7.074219 11.863281 5.980469 13.230469 5.980469 Z M 13.230469 5.980469 "/>
<path style="fill-rule:nonzero;fill:url(#linear4);stroke-width:11.338583;stroke-linecap:round;stroke-linejoin:round;stroke:rgb(12.941177%,12.941177%,12.941177%);stroke-opacity:1;stroke-miterlimit:4;" d="M 620.019564 695.130505 C 608.918261 695.130505 599.94274 703.987928 599.94274 715.08923 L 599.94274 755.124779 C 599.94274 766.226082 608.918261 775.083504 620.019564 775.083504 L 660.055113 775.083504 C 671.038317 775.083504 680.013838 766.226082 680.013838 755.124779 L 680.013838 715.08923 C 680.013838 703.987928 671.038317 695.130505 660.055113 695.130505 Z M 780.043661 695.130505 C 768.942358 695.130505 759.966837 703.987928 759.966837 715.08923 L 759.966837 755.124779 C 759.966837 766.226082 768.942358 775.083504 780.043661 775.083504 L 819.961111 775.083504 C 831.062413 775.083504 840.037935 766.226082 840.037935 755.124779 L 840.037935 715.08923 C 840.037935 703.987928 831.062413 695.130505 819.961111 695.130505 Z M 1060.056306 695.130505 C 1048.955003 695.130505 1039.979482 703.987928 1039.979482 715.08923 L 1039.979482 755.124779 C 1039.979482 766.226082 1048.955003 775.083504 1060.056306 775.083504 L 1099.973756 775.083504 C 1111.075058 775.083504 1120.05058 766.226082 1120.05058 755.124779 L 1120.05058 715.08923 C 1120.05058 703.987928 1111.075058 695.130505 1099.973756 695.130505 Z M 1219.962304 695.130505 C 1208.861001 695.130505 1200.003579 703.987928 1200.003579 715.08923 L 1200.003579 755.124779 C 1200.003579 766.226082 1208.861001 775.083504 1219.962304 775.083504 L 1259.997853 775.083504 C 1271.099155 775.083504 1279.956578 766.226082 1279.956578 755.124779 L 1279.956578 715.08923 C 1279.956578 703.987928 1271.099155 695.130505 1259.997853 695.130505 Z M 699.972563 775.083504 C 688.87126 775.083504 680.013838 784.059026 680.013838 795.160328 L 680.013838 835.077778 C 680.013838 846.179081 688.87126 855.154602 699.972563 855.154602 L 740.008112 855.154602 C 751.109414 855.154602 759.966837 846.179081 759.966837 835.077778 L 759.966837 795.160328 C 759.966837 784.059026 751.109414 775.083504 740.008112 775.083504 Z M 1140.009305 775.083504 C 1128.908002 775.083504 1120.05058 784.059026 1120.05058 795.160328 L 1120.05058 835.077778 C 1120.05058 846.179081 1128.908002 855.154602 1140.009305 855.154602 L 1180.044854 855.154602 C 1191.028057 855.154602 1200.003579 846.179081 1200.003579 835.077778 L 1200.003579 795.160328 C 1200.003579 784.059026 1191.028057 775.083504 1180.044854 775.083504 Z M 620.019564 855.154602 C 608.918261 855.154602 599.94274 864.012025 599.94274 875.113327 L 599.94274 915.148876 C 599.94274 926.250179 608.918261 935.107601 620.019564 935.107601 L 660.055113 935.107601 C 671.038317 935.107601 680.013838 926.250179 680.013838 915.148876 L 680.013838 875.113327 C 680.013838 864.012025 671.038317 855.154602 660.055113 855.154602 Z M 780.043661 855.154602 C 768.942358 855.154602 759.966837 864.012025 759.966837 875.113327 L 759.966837 915.148876 C 759.966837 926.250179 768.942358 935.107601 780.043661 935.107601 L 819.961111 935.107601 C 831.062413 935.107601 840.037935 926.250179 840.037935 915.148876 L 840.037935 875.113327 C 840.037935 864.012025 831.062413 855.154602 819.961111 855.154602 Z M 1060.056306 855.154602 C 1048.955003 855.154602 1039.979482 864.012025 1039.979482 875.113327 L 1039.979482 915.148876 C 1039.979482 926.250179 1048.955003 935.107601 1060.056306 935.107601 L 1099.973756 935.107601 C 1111.075058 935.107601 1120.05058 926.250179 1120.05058 915.148876 L 1120.05058 875.113327 C 1120.05058 864.012025 1111.075058 855.154602 1099.973756 855.154602 Z M 1219.962304 855.154602 C 1208.861001 855.154602 1200.003579 864.012025 1200.003579 875.113327 L 1200.003579 915.148876 C 1200.003579 926.250179 1208.861001 935.107601 1219.962304 935.107601 L 1259.997853 935.107601 C 1271.099155 935.107601 1279.956578 926.250179 1279.956578 915.148876 L 1279.956578 875.113327 C 1279.956578 864.012025 1271.099155 855.154602 1259.997853 855.154602 Z M 819.961111 1015.0606 C 808.977907 1015.0606 800.002386 1024.036122 800.002386 1035.137424 L 800.002386 1075.172973 C 800.002386 1086.156177 808.977907 1095.131698 819.961111 1095.131698 L 1060.056306 1095.131698 C 1071.039509 1095.131698 1080.015031 1086.156177 1080.015031 1075.172973 L 1080.015031 1035.137424 C 1080.015031 1024.036122 1071.039509 1015.0606 1060.056306 1015.0606 Z M 740.008112 1095.131698 C 728.906809 1095.131698 720.049387 1103.989121 720.049387 1115.090423 L 720.049387 1155.125972 C 720.049387 1166.227275 728.906809 1175.084697 740.008112 1175.084697 L 780.043661 1175.084697 C 791.026864 1175.084697 800.002386 1166.227275 800.002386 1155.125972 L 800.002386 1115.090423 C 800.002386 1103.989121 791.026864 1095.131698 780.043661 1095.131698 Z M 1099.973756 1095.131698 C 1088.872453 1095.131698 1080.015031 1103.989121 1080.015031 1115.090423 L 1080.015031 1155.125972 C 1080.015031 1166.227275 1088.872453 1175.084697 1099.973756 1175.084697 L 1140.009305 1175.084697 C 1151.110607 1175.084697 1159.96803 1166.227275 1159.96803 1155.125972 L 1159.96803 1115.090423 C 1159.96803 1103.989121 1151.110607 1095.131698 1140.009305 1095.131698 Z M 660.055113 1175.084697 C 648.95381 1175.084697 639.978289 1184.060218 639.978289 1195.161521 L 639.978289 1235.078971 C 639.978289 1246.180274 648.95381 1255.155795 660.055113 1255.155795 L 699.972563 1255.155795 C 711.073866 1255.155795 720.049387 1246.180274 720.049387 1235.078971 L 720.049387 1195.161521 C 720.049387 1184.060218 711.073866 1175.084697 699.972563 1175.084697 Z M 1180.044854 1175.084697 C 1168.943551 1175.084697 1159.96803 1184.060218 1159.96803 1195.161521 L 1159.96803 1235.078971 C 1159.96803 1246.180274 1168.943551 1255.155795 1180.044854 1255.155795 L 1219.962304 1255.155795 C 1231.063606 1255.155795 1240.039128 1246.180274 1240.039128 1235.078971 L 1240.039128 1195.161521 C 1240.039128 1184.060218 1231.063606 1175.084697 1219.962304 1175.084697 Z M 1180.044854 1175.084697 " transform="matrix(0.0330761,0,0,0.0330761,0,0)"/>
</g>
</svg>

<svg xmlns="http://www.w3.org/2000/svg" width="64pt" height="64pt" viewBox="0 0 64 64"><defs><linearGradient id="a" gradientUnits="userSpaceOnUse" x1="254" y1="233.5" x2="254" y2="254.667" gradientTransform="translate(1.323 26.878) scale(.12501)"><stop offset="0" stop-opacity=".275"/><stop offset="1" stop-opacity="0"/></linearGradient><radialGradient id="b" gradientUnits="userSpaceOnUse" cx="450.909" cy="189.579" fx="450.909" fy="189.579" r="21.167" gradientTransform="matrix(0 -.15626 -.28128 0 98.97 127.19)"><stop offset="0" stop-opacity=".314"/><stop offset=".222" stop-opacity=".275"/><stop offset="1" stop-opacity="0"/></radialGradient><radialGradient id="c" gradientUnits="userSpaceOnUse" cx="450.909" cy="189.579" fx="450.909" fy="189.579" r="21.167" gradientTransform="matrix(0 .15626 .28128 0 -36.786 -15.055)"><stop offset="0" stop-opacity=".314"/><stop offset=".222" stop-opacity=".275"/><stop offset="1" stop-opacity="0"/></radialGradient><radialGradient id="d" gradientUnits="userSpaceOnUse" cx="450.909" cy="189.579" fx="450.909" fy="189.579" r="21.167" gradientTransform="matrix(0 -.15626 .28128 0 -36.786 127.19)"><stop offset="0" stop-opacity=".314"/><stop offset=".222" stop-opacity=".275"/><stop offset="1" stop-opacity="0"/></radialGradient><radialGradient id="e" gradientUnits="userSpaceOnUse" cx="450.909" cy="189.579" fx="450.909" fy="189.579" r="21.167" gradientTransform="matrix(0 .15626 -.28128 0 98.97 -15.055)"><stop offset="0" stop-opacity=".314"/><stop offset=".222" stop-opacity=".275"/><stop offset="1" stop-opacity="0"/></radialGradient><linearGradient id="f" gradientUnits="userSpaceOnUse" x1="940" y1="1695.118" x2="940" y2="175.118" gradientTransform="scale(.03308)"><stop offset="0" stop-color="#ef9a9a"/><stop offset="1" stop-color="#ffcdd2"/></linearGradient><linearGradient id="g" gradientUnits="userSpaceOnUse" x1="249.189" y1="233.5" x2="249.189" y2="254.667" gradientTransform="matrix(.05979 0 0 .21877 30.085 -32.722)"><stop offset="0" stop-opacity=".275"/><stop offset="1" stop-opacity="0"/></linearGradient><linearGradient id="h" gradientUnits="userSpaceOnUse" x1="338.667" y1="233.5" x2="338.667" y2="-168.667" gradientTransform="translate(0 26.878) scale(.12501)"><stop offset="0" stop-color="#ef5350"/><stop offset="1" stop-color="#e57373"/></linearGradient><linearGradient id="i" gradientUnits="userSpaceOnUse" x1="940" y1="1695.118" x2="940" y2="175.118"><stop offset="0" stop-color="#ef5350"/><stop offset="1" stop-color="#e57373"/></linearGradient></defs><path d="M15.875 56.066h30.43v2.649h-30.43zm0 0" fill="url(#a)"/><path d="M46.305 56.066h5.293v-2.644h-5.293zm0 0" fill="url(#b)"/><path d="M15.875 56.066h-5.29v2.649h5.29zm0 0" fill="url(#c)"/><path d="M15.875 56.066h-5.29v-2.644h5.29zm0 0" fill="url(#d)"/><path d="M46.305 56.066h5.293v2.649h-5.293zm0 0" fill="url(#e)"/><path d="M37.086 5.793H13.23a2.639 2.639 0 0 0-2.644 2.644v44.985a2.639 2.639 0 0 0 2.644 2.644h35.723a2.639 2.639 0 0 0 2.645-2.644V20.309zm0 0" fill="url(#f)"/><path d="M37.047 18.36h12.566l1.985 1.984v2.648H37.047zm0 0" fill="url(#g)"/><path d="M10.586 52.395v1.027a2.639 2.639 0 0 0 2.644 2.644h35.723a2.639 2.639 0 0 0 2.645-2.644v-1.027a2.639 2.639 0 0 1-2.645 2.644H13.23a2.639 2.639 0 0 1-2.644-2.644zm0 0" fill-opacity=".235"/><path d="M13.23 5.793a2.639 2.639 0 0 0-2.644 2.644v.993a2.639 2.639 0 0 1 2.644-2.645h23.856l14.512 14.516v-.992L37.086 5.793zm0 0" fill="#f6f6f6" fill-opacity=".588"/><path d="M51.598 20.309L37.086 5.793V17.66a2.642 2.642 0 0 0 2.644 2.649zm0 0" fill="url(#h)"/><path d="M37.086 17.04v.62a2.642 2.642 0 0 0 2.644 2.649h11.868l-.621-.625H39.73a2.639 2.639 0 0 1-2.644-2.645zm0 0" fill-opacity=".235"/><path d="M37.086 5.793v.992l13.52 13.524h.992zm0 0" fill="#fff" fill-opacity=".392"/><path d="M37.082 5.605a.187.187 0 0 0-.184.188V17.66a2.832 2.832 0 0 0 2.832 2.836h11.868a.198.198 0 0 0 .175-.117.186.186 0 0 0-.043-.203L37.215 5.66a.186.186 0 0 0-.133-.055zm.191.641l13.872 13.871H39.73a2.444 2.444 0 0 1-2.457-2.457zm0 0" fill="#212121"/><path d="M13.23 5.605a2.83 2.83 0 0 0-2.832 2.832v44.985a2.83 2.83 0 0 0 2.832 2.832h35.723a2.83 2.83 0 0 0 2.832-2.832V20.309c0-.051-.02-.098-.055-.133L37.215 5.66a.184.184 0 0 0-.13-.055zm0 .375h23.778L51.41 20.383v33.039a2.449 2.449 0 0 1-2.457 2.457H13.23a2.447 2.447 0 0 1-2.457-2.457V8.438A2.447 2.447 0 0 1 13.23 5.98zm0 0" fill="#212121"/><path d="M620.02 695.13c-11.102 0-20.077 8.858-20.077 19.96v40.035c0 11.101 8.975 19.959 20.077 19.959h40.035c10.983 0 19.959-8.858 19.959-19.96V715.09c0-11.101-8.976-19.958-19.959-19.958zm160.024 0c-11.102 0-20.077 8.858-20.077 19.96v40.035c0 11.101 8.975 19.959 20.077 19.959h39.917c11.101 0 20.077-8.858 20.077-19.96V715.09c0-11.101-8.976-19.958-20.077-19.958zm280.012 0c-11.101 0-20.077 8.858-20.077 19.96v40.035c0 11.101 8.976 19.959 20.077 19.959h39.918c11.101 0 20.077-8.858 20.077-19.96V715.09c0-11.101-8.976-19.958-20.077-19.958zm159.906 0c-11.101 0-19.958 8.858-19.958 19.96v40.035c0 11.101 8.857 19.959 19.958 19.959h40.036c11.101 0 19.959-8.858 19.959-19.96V715.09c0-11.101-8.858-19.958-19.96-19.958zm-519.99 79.954c-11.1 0-19.958 8.975-19.958 20.076v39.918c0 11.101 8.857 20.077 19.959 20.077h40.035c11.101 0 19.959-8.976 19.959-20.077V795.16c0-11.101-8.858-20.076-19.959-20.076zm440.037 0c-11.101 0-19.958 8.975-19.958 20.076v39.918c0 11.101 8.857 20.077 19.958 20.077h40.036c10.983 0 19.959-8.976 19.959-20.077V795.16c0-11.101-8.976-20.076-19.96-20.076zm-519.99 80.07c-11.1 0-20.076 8.858-20.076 19.96v40.035c0 11.101 8.975 19.959 20.077 19.959h40.035c10.983 0 19.959-8.858 19.959-19.96v-40.035c0-11.101-8.976-19.958-19.959-19.958zm160.025 0c-11.102 0-20.077 8.858-20.077 19.96v40.035c0 11.101 8.975 19.959 20.077 19.959h39.917c11.101 0 20.077-8.858 20.077-19.96v-40.035c0-11.101-8.976-19.958-20.077-19.958zm280.012 0c-11.101 0-20.077 8.858-20.077 19.96v40.035c0 11.101 8.976 19.959 20.077 19.959h39.918c11.101 0 20.077-8.858 20.077-19.96v-40.035c0-11.101-8.976-19.958-20.077-19.958zm159.906 0c-11.101 0-19.958 8.858-19.958 19.96v40.035c0 11.101 8.857 19.959 19.958 19.959h40.036c11.101 0 19.959-8.858 19.959-19.96v-40.035c0-11.101-8.858-19.958-19.96-19.958zm-400 159.907c-10.984 0-19.96 8.975-19.96 20.076v40.036c0 10.983 8.976 19.959 19.96 19.959h240.094c10.984 0 19.959-8.976 19.959-19.959v-40.036c0-11.1-8.975-20.076-19.959-20.076zm-79.954 80.07c-11.101 0-19.959 8.858-19.959 19.96v40.035c0 11.101 8.858 19.959 19.96 19.959h40.035c10.983 0 19.958-8.858 19.958-19.959v-40.036c0-11.1-8.975-19.958-19.958-19.958zm359.966 0c-11.102 0-19.959 8.858-19.959 19.96v40.035c0 11.101 8.857 19.959 19.959 19.959h40.035c11.102 0 19.959-8.858 19.959-19.959v-40.036c0-11.1-8.857-19.958-19.959-19.958zm-439.919 79.954c-11.101 0-20.077 8.975-20.077 20.077v39.917c0 11.101 8.976 20.077 20.077 20.077h39.918c11.1 0 20.076-8.976 20.076-20.077v-39.917c0-11.102-8.975-20.077-20.076-20.077zm519.99 0c-11.101 0-20.077 8.975-20.077 20.077v39.917c0 11.101 8.976 20.077 20.077 20.077h39.917c11.102 0 20.077-8.976 20.077-20.077v-39.917c0-11.102-8.975-20.077-20.077-20.077zm0 0" transform="scale(.03308)" fill="url(#i)" stroke-width="11.339" stroke-linecap="round" stroke-linejoin="round" stroke="#212121"/></svg>
